X: 6
T: The Orphan
R: jig
M: 6/8
L: 1/8
K: Emin
B|E3 EFB|GFG AGA|B3 ABA|GFG EDB|
|A2 E EDB|G3 AGA|B3 ABA|GED E2B|
|E3 EFB|G3 AGA|B3 ABA|GE/F/G EDB|
|A2 E EDB|G3 AGA|B3 ABA|GED E3|
|efe dBA|GAB dBd|edB AGA|BdB AGF|
|G2 F EDB|G3 AGA|BdB ABA|GED E3|
|g3B dBA|GAB dBd|edB AGA|B3 AGF|
|G2 F EDB|G3 AGA|B3 ABA|GED E3|


Tune 217	Setting 217

